X:1
T:Philemon et Baucis
T:Philemon et Baucis
T:Acte 1, N°4, Couplets de Vulcain
T:Charles Gounod
C:Charles Gounod
%%score 1 { ( 2 3 4 6 ) | ( 5 7 ) }
L:1/8
Q:1/4=76
M:2/4
K:Db
V:1 bass nm="VULCAIN" snm="V."
V:2 bass nm="Piano" snm="Pia."
V:3 bass 
V:4 bass 
V:6 bass 
V:5 bass 
V:7 bass 
V:1
 z4 | z4 | z4 | z4 | z4 | z4 | z4 | z4 | z2 z F, |2 z2 F,>F, |: B,3 D | (F, B,) D, F, | B,,4- | %13
w: ||||||||Au|Sous les|bruit des|lourds mar- teaux d'ai-|rain|
w: ||||||||||monts fer-|més _ au ciel|bleu|
 B,,2- B,, z | z F, B,D | CA,/B,/ =G,C | F,4 | F,2- F, z | z F, A, D | E, (F,/G,/) F, E, | %20
w: _ _|Au som- bre é-|clat de _ la four-|nai-|se _|Dans mon em-|pi- re _ sous- ter-|
w: _ _|Je com- mande|à toute _ une ar-|mé-|e _|De noirs gé-|ants maî _ tres du|
 A, A, D A, | F, A, D, F, | A,,4- | A,,4 | D,2 z2 |1 z2!ff! F,2 | C3 =D | C =A, =G,3/2 F,/ ||2 %28
w: rain, Je mar- che et|je res- pire à|l'ai-||se|Je|règne en|maî- tre sou- ve-|
w: feu Au sein de|l'ar- den- te fu-|mé-||e||||
 z2!ff! F,3/2 =G,/ | A,3/2 =D/ C2- | C2 B,3/2 =G,/ ||[K:Bb] F,4- | F,3!p! F, | F, D, D, B, | %34
w: Com- me|vous là\- haut,|_ je suis|rain!|_ Mais|chez vous j'en ai|
w: |||roi!|_ Mais|quand Ju- non m'in-|
 B, A, z F, | F, D, D, B, | B, A, z F, | D ^C D C | (DA,) B, ^F, | (G,D,) E, =B,, | %40
w: hon- te Cha-|que fois que j'y|mon- te J'en-|ra- ge de me|voir _ Si dif-|for- me et si|
w: vi- te A|lui ren- dre vi-|si- te *||||
 C, z (_A,/G,/) (F,/A,/) | G, z (_A,/G,/) (F,/A,/) | G, G, (_G,/F,/) (E,/G,/) | %43
w: noir. Mon _ as- *|pect vous _ fait _|ri- re Et _ tout _|
w: |* la _ fait _|_ _ _ _ _ _|
 F, z (_G,/F,/) (E,/G,/) | F,4 | F, z z (C,/D,/) | E, C, D, F, | E,2 z (C,/D,/) | E, C, D, F, | %49
w: bas j'en- * tends _|di-|re Vé- *|nus n'a- vait- pas|tort, Il _|mé- ri- te son|
w: ||||||
 E,2 z (A,/C/) | (E/D/) (C/B,/) (A,/G,/) (F,/E,/) | (D,/^C,/) D,/ C,/ D,/ C,/ D,/ C,/ | %52
w: sort! Sans _|é _ cou _ ter _ le _|res- * te Loin du sé- jour cé-|
w: |||
 (D,/^C,/) (D,/C,/) (D,/C,/) (D,/C,/) | D,4- | D,2- D, z/ D,/ | B, z B, z | E,2- E, z/ E,/ | %57
w: les _ te _ Moi _ je _|fuis,|_ _ Voi-|là pour-|quoi, _ voi-|
w: |||||
 C z C z | F,2- F, z/ F,/ | D z D z | G, C B, G, | B,2{G,A,B,} A,/- !fermata!PA,3/2 | %62
w: là pour-|quoi, _ voi-|là pour-|quoi J'aime à res-|ter chez _|
w: |||||
{G,A,} B,2- B, z | z4 | z4 | z4 ||1[K:Db] z4 | z2 F,3/2 F,/ :|2 z4 | z4 |] %70
w: moi. _|||||Sous les|||
w: ||||||||
V:2
 !>!D,4 | !>!D,4 | !>!D,2 x2 |[K:treble] !>!F,2 x2 | ([=A,F]2!f! c)[F=Af] | F2 FF | G2 FG | %7
 F2 [E=Ac]2 | [DB]2- [DB] z |2 [DB]2- [DB] z |: z4 | z4 |[K:bass] !>!D,4 | !>!D,4 | D,2 z2 | z4 | %16
[K:treble] !>!A,4 | !>!A,4 | A, z ((d2 | ([B,DE]))F/G/ [A,DF])[A,CE] | [F,DA]"_cresc." (AdA) | %21
 (FA(DF) | A,/) z/!p! ([FA]/[=DB]/ [E_G]/) z/ ([EG]/[CA]/ | %23
 [_DF]/) z/ ([DF]/[B,G]/ [CE]/) z/ ([CE]/[A,F]/ | D) z/ D/ C/D/E/F/ |1 A, z [F,B,DF]>F | [CF=A]4- | %27
 [CFA] z [Bc=e] z ||2 A, z [F,B,DF]>F | [CF=A]4- | [CFA] z [Bc=e] z || %31
[K:Bb] [Af]/F/F/F/"_dim." F/F/F/F/ | F/ .F/.G/.A/ .B/.c/.d/.e/ | F/ z/ D/ z/ D/ z/ B/ z/ | %34
 (ba) z f/ z/ | f/ z/ d/ z/ d/ z/ b/ z/ | (ba) z f/ z/ | %37
 [dd']/ z/ [^c^c']/ z/ [dd']/ z/ [cc']/ z/ | [dd']/ z/ [Aa]/ z/ [Bb]/ z/ [^F^f]/ z/ | %39
 [Gg]/ z/ [=Fd]/ z/ [Ee]/ z/ [D=B]/ z/ | [Cc] z (((([=B,F]2 | [CE])))) z (([=B,F]2 | %42
 [CE])) z (([_B,_G]2 | [A,F])) z (([B,_G]2 | [A,F])) z z2 | z[K:bass] F,/ z/ F,/ z/ F,/ z/ | %46
 [F,A,E]/ z/ [F,A,E]/ z/ [F,^G,D]/ z/ [F,G,D]/ z/ | [F,A,E]/[K:treble] .F/.A/.c/ .e z | %48
[K:bass] [F,A,E]/ z/ [F,A,E]/ z/ [F,^G,D]/ z/ [F,G,D]/ z/ | %49
 [F,A,E]/[K:treble] .F/.A/.c/ .e/(f/a/c'/ | e'/d'/c'/b/ a/g/f/e/) | %51
!p! ([^FAd]/[GBe]/[FAd]/[GBe]/) ([FAd]/[GBe]/[FBd]/[GBe]/) | %52
 ([^FAd]/[GBe]/[FAd]/[GBe]/) ([FAd]/[GBe]/[FBd]/[GBe]/) | %53
!<(! .[^FAd]/ .G/.^G/.A/ .B/.=B/.c/.^c/!<)! |!>(! .d/.e/.=e/.f/ .^f/.g/.^g/.a/!>)! | %55
 b [DF]/[EG]/ ([F_A] [DF] | [EG]/) z/{/_A} [EG]/ z/{/A}[EG]/ z/ z | .[=EG].[EG]/.[F=A]/ ([GB][EG] | %58
 [FA]/) z/{/B} [FA]/ z/{/B} [FA]/ z/ z | [^FA]/z/"_cresc."[FA]/[GB]/ [Ac][FA] | %60
 [GB] ([E,A,E][F,B,D][B,CG] | [B,DF]) z [Acea] !fermata!z |!f! [Bdb] z [Bb]/z/[cc']/[dd']/ | %63
 [Bdb]2 [Bb]/z/[cc']/[dd']/ | (((([Bdb]2 [ff']/))))z/[dd']/[cc']/ | [Bb]/z/[Dd]/ z/ [Cc]>[B,B] ||1 %66
[K:Db] [B,B]4- | [B,B] z z2 :|2 [B,B]4- | [B,B] z z2 |] %70
V:3
 z F,G, z | z F,G, z | x F,B, x |[K:treble] z A,D x | x4 | [Bd][=Ac]/[=GB]/ [Ac][Bd] | %6
 [ce][Bd]/[=Ac]/ [Bd][ce] | [Bd]2 x2 | x4 |2 x4 |: x4 | x4 |[K:bass] x F,G, x | x F,G, x | x4 | %15
 x4 |[K:treble] x CD x | x CD x | F z D2 | x4 | x4 | x2 B,2 | x4 | x4 | x4 |1 x4 | x4 | x4 ||2 x4 | %29
 x4 | x4 ||[K:Bb] x4 | x4 | x4 | x4 | x4 | x4 | x4 | x4 | x4 | x4 | x4 | x4 | x4 | x4 | %45
 x[K:bass] x3 | x4 | x/[K:treble] x7/2 |[K:bass] x4 | x/[K:treble] x7/2 | x4 | x4 | x4 | x4 | x4 | %55
 x4 | x4 | x4 | x4 | x4 | x4 | x4 | x4 | x4 | x4 | x4 ||1[K:Db] x4 | x4 :|2 x4 | x4 |] %70
V:4
 z2 B,/z/C/D/ | B,2 B,/z/C/D/ | B,2 D/z/E/F/ |[K:treble] D2 F/z/=G/=A/ | x4 | x4 | x4 | x4 | x4 |2 %9
 x4 |: x4 | x4 |[K:bass] x2 B,/z/C/D/ | B,2 B,/z/C/D/ | B,2 x2 | x4 |[K:treble] x2 F/z/=G/A/ | %17
 x2 F/z/=G/A/ | x4 | x4 | x4 | x4 | x4 | x4 | x4 |1 x4 | x4 | x4 ||2 x4 | x4 | x4 ||[K:Bb] x4 | %32
 x4 | x4 | x4 | x4 | x4 | x4 | x4 | x4 | x4 | x4 | x4 | x4 | x4 | x[K:bass] x3 | x4 | %47
 x/[K:treble] x7/2 |[K:bass] x4 | x/[K:treble] x7/2 | x4 | x4 | x4 | x4 | x4 | x4 | x4 | x4 | x4 | %59
 x4 | x4 | x4 | x4 | x4 | x4 | x4 ||1[K:Db] x4 | x4 :|2 x4 | x4 |] %70
V:5
 .B,,,.B,,.G,,.B,, | .B,,,.B,,.G,,.B,, | .B,,,.B,,.G,,.B,, | .B,,,.D,.B,,.D, | %4
 F,, z [=A,,=A,][F,,F,] | [B,,B,]2 [F,,F,][B,,B,] | [E,,E,]2 [B,,B,][E,,E,] | [F,,F,]2 [F,,F,]2 | %8
 [B,,,B,,]2- [B,,,B,,] z |2 [B,,,B,,]2- [B,,,B,,] z |: z4 | z4 | B,,,B,,G,,B,, | B,,,B,,G,,B,, | %14
 B,,,2 z2 | z4 | F,,F,D,F, | F,,F,D,F, | F,, z ([F,A,]2 | _G,,2 A,,)G,, | F,, (A,DA,) | F,A,D,F, | %22
 x x [A,,,A,,] z | [A,,,A,,] z ((((([A,,G,]2 | %24
 [D,F,]))))) z/ [D,,D,]/ [C,,C,]/[D,,D,]/[E,,E,]/[F,,F,]/ |1 [A,,,A,,] z [B,,,B,,] z | C,4- | %27
 C, z [C,,C,] z ||2 [A,,,A,,] z [B,,,B,,] z | C,4- | C, z [C,,C,] z || %31
[K:Bb] [F,,F,]>G, A,/B,/C/D/ | E4 | D/ F,/F,/F,/ [D,F,] z | C,/F,/E,/F,/ D, C, | %35
 D,/F,/F,/F,/ [D,F,] z | C,/F,/E,/F,/ D, C, | D, A,/G/ B,/F/A,/G/ | B,/F/^F,/E/ G,/D/D,/C/ | %39
 E,/B,/D,/_A,/ G,/G,/[A,,F,]/G,/ | [C,E,]/ C,,/C,/C,,/ C, z | C,,/C,,/C,/C,,/ C, z | %42
 C,,/C,,/C,/C,,/ C,, z | C,,/C,,/C,/C,,/ C, z | [F,,F,]/ z/ [F,,F,]/ z/ [F,,F,]/ z/ [F,,F,]/ z/ | %45
 [F,,F,]/ z/ F,,/ z/ F,,/ z/ F,,/ z/ | [C,,F,,]/ z/ [C,,F,,]/ z/ [=B,,,F,,]/ z/ [B,,,F,,]/ z/ | %47
 [C,,F,,]/ z/ F,,/ z/ F,,/ z/ F,,/ z/ | [C,,F,,]/ z/ [C,,F,,]/ z/ [=B,,,F,,]/ z/ [B,,,F,,]/ z/ | %49
 [C,,F,,]/ z/ F,,/ z/!<(! (F,,/F,,/A,,/C,/) | (E,/!<)!D,/!>(!C,/B,,/ A,,/G,,/F,,/E,,/)!>)! | %51
 (D,,/^C,,/D,,/C,,/) (D,,/C,,/D,,/C,,/) | (D,,/^C,,/D,,/C,,/) (D,,/C,,/D,,/C,,/) |{/D,,} D,4- | %54
 D,4 | [B,D=F] z [B,,B,] z | [_D,E,B,]/ z/ [D,E,B,]/ z/ [D,E,B,]/G,/B,/_D/ | [C,C] z [C,C] z | %58
 [_E,F,C]/ z/ [E,F,C]/ z/ [E,F,C] z/ z/ | [D,D] z [D,D] z | [G,D] ([C,,C,][D,,D,][E,,E,] | %61
 [F,,F,]) z [F,,F,] !fermata!z | [B,,,B,,] [B,,B,][_G,,_G,][B,,B,] | %63
 [B,,F,][B,,B,][_G,,_G,][B,,B,] | [B,,F,]B, F/z/D/C/ | B,/z/[D,,D,]/ z/ [C,,C,]>[B,,,B,,] ||1 %66
[K:Db] !///-!B,,,2 B,,2 | B,,, z z2 :|2 !///-!B,,,2 B,,2 | [B,,,B,,] z z2 |] %70
V:6
 x4 | x4 | x4 |[K:treble] x4 | x4 | x4 | x4 | x4 | x4 |2 x4 |: x4 | x4 |[K:bass] x4 | x4 | x4 | %15
 x4 |[K:treble] x4 | F2 x2 | x4 | x4 | x4 | x4 | x4 | x4 | x4 |1 x4 | x4 | x4 ||2 x4 | x4 | x4 || %31
[K:Bb] x4 | x4 | x4 | x4 | x4 | x4 | x4 | x4 | x4 | x4 | x4 | x4 | x4 | x4 | x[K:bass] x3 | x4 | %47
 x/[K:treble] x7/2 |[K:bass] x4 | x/[K:treble] x7/2 | x4 | x4 | x4 | x4 | x4 | x4 | x4 | x4 | x4 | %59
 x4 | x4 | x4 | x4 | x4 | x4 | x4 ||1[K:Db] x4 | x4 :|2 x4 | x4 |] %70
V:7
 x4 | x4 | x4 | x4 | x4 | x4 | x4 | x4 | x4 |2 x4 |: x4 | x4 | x4 | x4 | x4 | x4 | x4 | x4 | x4 | %19
 x4 | x4 | x2 (G,,2 | A,,) x3 | x4 | x4 |1 x4 | C,, z z2 | x4 ||2 x4 | C,, z z2 | x4 ||[K:Bb] x4 | %32
 x/ F/F/F/ F/F/F/F/ | B,/ x3/2 B,/F,/F,/F,/ | C,/ z/ E,/ z/ D,/F,/E,/F,/ | B,,/ x3/2 B,/F,/F,/F,/ | %36
 C,/ z/ E,/ z/ D,/F,/E,/F,/ | B,, x3 | x4 | x4 | x4 | x4 | x4 | x4 | x4 | x4 | x4 | x4 | x4 | x4 | %50
 x4 | x4 | x4 | x4 | x4 | x4 | x4 | x4 | x4 | x4 | x4 | x4 | x4 | x4 | x4 | x4 ||1[K:Db] x4 | %67
 x4 :|2 x4 | x4 |] %70

